X:1
T:Pay Me the Money Down
M:6/8
L:1/8
K:F
 c| AAA GFG| A2 F C3| AAA B2 A| G6| AAA GFG| A2 F C3| GGG A2 G| F6|\


